X:1
T:Hamish Henderson's Refusal
R:strathspey
C:Brian MacNeill
S:Los Angeles Scottish Fiddler's Tunebook
Z:Erica Mackenzie  <erika@pnc.com.au> scots-l 2000-03-02
N:Anselm Lingnau  writes:
N:The story is that Hamish Henderson (of Edinburgh University School of Scottish Studies
N:fame) was  about to be awarded a decoration (MBE or some such, I keep forgetting).  He
N:declined this on the grounds that (approximately) he was not about to accept such from
N:a government that participated actively in the nuclear arms race.
M:4/4
L:1/8
K:Dm
A,2 \
[| "Dm"D2 C>D A,2  A,>G, | "Dm"A,<D "C"E>F "Dm"D3 E | "F"F>C F<A "C7"(3GAB A>G | "Dm"A<d d>e "A7"^c3 A |
| "Dm"d>e f<a "C"e<c c>A | "Bb"(3Bcd "F"A>F "C"E2 F>E | "Dm"D2 C>D A,2 A,>G, | "Dm"A,<D "C"E>F "Dm"D4 |]
[| "C"E2 E>D E<c c2 | "Gm"(3BAG A>B "Dm"A<d d>e | "F"f>e (3fga "C"a>g g<f | f>e e<d "A7"e3 A |
| "Gm"B>A (3GAB "Dm"A<d d2 | "Dm"F<d d<F "C"E3 F/E/ | "Dm"D2 C>D A,2 A,>G, | "Dm"A,<D "C"E>F "Dm"D4 |]
